src/topics/icons/thimble.svg

<svg height="279" preserveAspectRatio="xMidYMid" viewBox="0 0 256 279" width="256" xmlns="http://www.w3.org/2000/svg"><path d="m251.895709 223.299253c-2.311302-2.299509-13.761676-8.567144-13.761676-8.567144s-18.077677-168.2002224-21.385432-173.6482893c-3.313651-5.4362746-39.014998-40.30626144-91.272809-40.30626144-42.9595412-.00589618-84.114852 31.32048874-87.2044484 40.30626144-3.1957276 9.3336471-21.4031201 173.6247043-21.4031201 173.6247043s-11.468063 5.707499-13.24870825 8.590729c-1.7688529 2.88323-4.99995754 15.43619-2.92450346 23.443197 2.07545407 8.007008 66.45580351 32.022134 126.98595021 32.022134 57.346211 0 123.359801-25.265116 127.080288-32.022134 2.323094-4.227558-.571929-21.125999-2.865541-23.443197" fill="#a3b5be"/><path d="m166.613414 164.361075c-3.354924 0-6.114335-2.747619-6.114335-6.120231 0-3.390302 2.759411-6.126128 6.114335-6.126128 3.384405 0 6.143816 2.735826 6.143816 6.126128 0 3.372612-2.759411 6.120231-6.143816 6.120231m0-29.339374c-3.354924 0-6.114335-2.741722-6.114335-6.143816 0-3.372612 2.759411-6.120231 6.114335-6.120231 3.384405 0 6.143816 2.747619 6.143816 6.120231 0 3.402094-2.759411 6.143816-6.143816 6.143816m3.16035-42.3522345c-5.630848 0-10.235762-4.581329-10.235762-10.2593468 0-5.648537 4.604914-10.2357622 10.235762-10.2357622 5.672122 0 10.277036 4.581329 10.277036 10.2357622 0 5.6780178-4.604914 10.2593468-10.277036 10.2593468m-44.303869-91.89190824-.607306 61.24358364c5.05892.6190985 8.997565 4.9409958 8.997565 10.1591118 0 5.3183511-4.03888 9.663833-9.198035 10.1944889l-.206366 20.9255294c5.265286.442214 9.404401 4.85845 9.404401 10.218074 0 5.436275-4.257039 9.881992-9.604871 10.212177l-.259432 26.072892c5.477548.206366 9.864303 4.705149 9.864303 10.229866 0 5.583679-4.498782 10.135527-10.064773 10.241658l-.182781 18.761634s-53.3662921 2.093142-106.7502727 25.671951-11.46806297 5.707499-13.24870823 8.590729c-1.7688529 2.88323-4.78769518 16.055288-2.92450346 23.443197.01179235.041274.02358471.070754.03537706.106132 2.44691318 7.505832 67.59966173 31.916002 126.95057233 31.916002 57.346211 0 123.359802-25.265116 127.080289-32.022134 1.438667-4.587225.247639-15.153173-1.450459-20.501005-.459902-1.397394-.931596-2.435121-1.391498-2.912711v-.005896c-.005896 0-.005896-.011792-.005896-.011792-.005896 0-.005896-.005897-.011792-.011793-2.311302-2.299509-13.761676-8.567144-13.761676-8.567144s-18.077677-168.2002224-21.385432-173.6482893c-3.313651-5.4362746-39.014998-40.30626144-91.278706-40.30626144" fill="#b5c4cb"/><path d="m160.49908 128.880833c-.000001.000983-.000001.001966-.000001.002949 0 3.402093 2.759411 6.143815 6.114335 6.143815 3.384405 0 6.143816-2.747618 6.143816-6.143815 0-.000983-.000001-.001966-.000001-.002949 0-.000982.000001-.001965.000001-.002948 0-3.366716-2.759411-6.120231-6.143816-6.120231-3.354924 0-6.114335 2.747619-6.114335 6.120231 0 .000983 0 .001966.000001.002949zm-72.8236749-46.458921c0 5.6780178-4.6108099 10.2534507-10.265243 10.2534507-5.6485369 0-10.2534506-4.5754329-10.2534506-10.2534507 0-5.6544331 4.6049137-10.2357621 10.2534506-10.2357621 5.6544331 0 10.265243 4.581329 10.265243 10.2357621zm46.1906459-10.2416583c0 5.6780178-4.604914 10.2475545-10.265243 10.2475545-5.630849 0-10.241659-4.5695367-10.241659-10.2475545 0-5.6485369 4.61081-10.2357621 10.241659-10.2357621 5.654433 0 10.265243 4.581329 10.265243 10.2357621zm0 41.3380923c0 5.654433-4.604914 10.235762-10.265243 10.235762-5.630849 0-10.241659-4.581329-10.241659-10.235762 0-5.648537 4.61081-10.253451 10.241659-10.253451 5.654433 0 10.265243 4.604914 10.265243 10.253451zm0 46.520831c0 5.654433-4.604914 10.241659-10.265243 10.241659-5.630849 0-10.241659-4.587226-10.241659-10.241659 0-5.666225 4.61081-10.247554 10.241659-10.247554 5.654433-.005896 10.265243 4.581329 10.265243 10.247554zm46.184749-77.6231612c0 5.6721217-4.604914 10.2593469-10.277036 10.2593469-5.630848 0-10.235762-4.5813291-10.235762-10.2593469 0-5.6485369 4.604914-10.2357621 10.235762-10.2357621 5.672122 0 10.277036 4.581329 10.277036 10.2357621zm-7.29357 75.8248282c0 3.372612-2.759411 6.120231-6.143816 6.120231-3.354924 0-6.114335-2.747619-6.114335-6.120231 0-3.390302 2.759411-6.126128 6.114335-6.126128 3.384405 0 6.143816 2.735826 6.143816 6.126128zm-90.2468753-29.357062c0 3.396197-2.7299297 6.143815-6.1202311 6.143815s-6.1438157-2.741722-6.1438157-6.143815c0-3.372613 2.7594105-6.120231 6.1438157-6.120231s6.1202311 2.747618 6.1202311 6.120231zm-6.1320234 35.489085c3.386623 0 6.1320234-2.7454 6.1320234-6.132023s-2.7454004-6.132024-6.1320234-6.132024-6.1320234 2.745401-6.1320234 6.132024 2.7454004 6.132023 6.1320234 6.132023z" fill="#fff"/><path d="m224.767401 239.177656s-40.093999 21.232131-97.092336 21.232131c-53.6257234 0-96.9744118-21.232131-96.9744118-21.232131s42.6411472-24.457339 96.9744118-24.457339c56.591501-.005896 97.092336 24.457339 97.092336 24.457339z" fill="#647882"/></svg>

<?xml version="1.0" encoding="UTF-8" standalone="no"?>
<svg width="256px" height="279px" viewBox="0 0 256 279" version="1.1" xmlns="http://www.w3.org/2000/svg" xmlns:xlink="http://www.w3.org/1999/xlink" preserveAspectRatio="xMidYMid">
	<g>
		<path d="M251.895709,223.299253 C249.584407,220.999744 238.134033,214.732109 238.134033,214.732109 C238.134033,214.732109 220.056356,46.5318866 216.748601,41.0838197 C213.43495,35.6475451 177.733603,0.777558255 125.475792,0.777558255 C82.5162508,0.771662078 41.36094,32.098047 38.2713436,41.0838197 C35.075616,50.4174668 16.8682235,214.708524 16.8682235,214.708524 C16.8682235,214.708524 5.4001605,220.416023 3.61951525,223.299253 C1.85066235,226.182483 -1.38044229,238.735443 0.695011786,246.74245 C2.77046586,254.749458 67.1508153,278.764584 127.680962,278.764584 C185.027173,278.764584 251.040763,253.499468 254.76125,246.74245 C257.084344,242.514892 254.189321,225.616451 251.895709,223.299253" fill="#A3B5BE"></path>
		<path d="M166.613414,164.361075 C163.25849,164.361075 160.499079,161.613456 160.499079,158.240844 C160.499079,154.850542 163.25849,152.114716 166.613414,152.114716 C169.997819,152.114716 172.75723,154.850542 172.75723,158.240844 C172.75723,161.613456 169.997819,164.361075 166.613414,164.361075 M166.613414,135.021701 C163.25849,135.021701 160.499079,132.279979 160.499079,128.877885 C160.499079,125.505273 163.25849,122.757654 166.613414,122.757654 C169.997819,122.757654 172.75723,125.505273 172.75723,128.877885 C172.75723,132.279979 169.997819,135.021701 166.613414,135.021701 M169.773764,92.6694665 C164.142916,92.6694665 159.538002,88.0881375 159.538002,82.4101197 C159.538002,76.7615827 164.142916,72.1743575 169.773764,72.1743575 C175.445886,72.1743575 180.0508,76.7556865 180.0508,82.4101197 C180.0508,88.0881375 175.445886,92.6694665 169.773764,92.6694665 M125.469895,0.777558255 L125.469895,0.777558255 L124.862589,62.0211419 C129.921509,62.6402404 133.860154,66.9621377 133.860154,72.1802537 C133.860154,77.4986048 129.821274,81.8440867 124.662119,82.3747426 L124.455753,103.300272 C129.721039,103.742486 133.860154,108.158722 133.860154,113.518346 C133.860154,118.954621 129.603115,123.400338 124.255283,123.730523 L123.995851,149.803415 C129.473399,150.009781 133.860154,154.508564 133.860154,160.033281 C133.860154,165.61696 129.361372,170.168808 123.795381,170.274939 L123.6126,189.036573 C123.6126,189.036573 70.2463079,191.129715 16.8623273,214.708524 L16.8623273,214.708524 C16.8623273,214.708524 5.39426433,220.416023 3.61361907,223.299253 L3.61361907,223.299253 C1.84476617,226.182483 -1.17407611,239.354541 0.68911561,246.74245 L0.68911561,246.74245 C0.700907962,246.783724 0.712700315,246.813204 0.724492668,246.848582 C3.17140585,254.354414 68.3241544,278.764584 127.675065,278.764584 L127.675065,278.764584 C185.021276,278.764584 251.034867,253.499468 254.755354,246.74245 L254.755354,246.74245 C256.194021,242.155225 255.002993,231.589277 253.304895,226.241445 C252.844993,224.844051 252.373299,223.806324 251.913397,223.328734 L251.913397,223.322838 C251.907501,223.322838 251.907501,223.311046 251.907501,223.311046 C251.901605,223.311046 251.901605,223.305149 251.895709,223.299253 L251.895709,223.299253 C249.584407,220.999744 238.134033,214.732109 238.134033,214.732109 C238.134033,214.732109 220.056356,46.5318866 216.748601,41.0838197 C213.43495,35.6475451 177.733603,0.777558255 125.469895,0.777558255" fill="#B5C4CB"></path>
		<path d="M160.49908,128.880833 C160.499079,128.881816 160.499079,128.882799 160.499079,128.883782 C160.499079,132.285875 163.25849,135.027597 166.613414,135.027597 C169.997819,135.027597 172.75723,132.279979 172.75723,128.883782 C172.75723,128.882799 172.757229,128.881816 172.757229,128.880833 C172.757229,128.879851 172.75723,128.878868 172.75723,128.877885 C172.75723,125.511169 169.997819,122.757654 166.613414,122.757654 C163.25849,122.757654 160.499079,125.505273 160.499079,128.877885 C160.499079,128.878868 160.499079,128.879851 160.49908,128.880834 L160.49908,128.880833 Z M87.6754051,82.421912 C87.6754051,88.0999298 83.0645952,92.6753627 77.4101621,92.6753627 C71.7616252,92.6753627 67.1567115,88.0999298 67.1567115,82.421912 C67.1567115,76.7674789 71.7616252,72.1861499 77.4101621,72.1861499 C83.0645952,72.1861499 87.6754051,76.7674789 87.6754051,82.421912 Z M133.866051,72.1802537 C133.866051,77.8582715 129.261137,82.4278082 123.600808,82.4278082 C117.969959,82.4278082 113.359149,77.8582715 113.359149,72.1802537 C113.359149,66.5317168 117.969959,61.9444916 123.600808,61.9444916 C129.255241,61.9444916 133.866051,66.5258206 133.866051,72.1802537 Z M133.866051,113.518346 C133.866051,119.172779 129.261137,123.754108 123.600808,123.754108 C117.969959,123.754108 113.359149,119.172779 113.359149,113.518346 C113.359149,107.869809 117.969959,103.264895 123.600808,103.264895 C129.255241,103.264895 133.866051,107.869809 133.866051,113.518346 Z M133.866051,160.039177 C133.866051,165.69361 129.261137,170.280836 123.600808,170.280836 C117.969959,170.280836 113.359149,165.69361 113.359149,160.039177 C113.359149,154.372952 117.969959,149.791623 123.600808,149.791623 C129.255241,149.785727 133.866051,154.372952 133.866051,160.039177 Z M180.0508,82.4160158 C180.0508,88.0881375 175.445886,92.6753627 169.773764,92.6753627 C164.142916,92.6753627 159.538002,88.0940336 159.538002,82.4160158 C159.538002,76.7674789 164.142916,72.1802537 169.773764,72.1802537 C175.445886,72.1802537 180.0508,76.7615827 180.0508,82.4160158 Z M172.75723,158.240844 C172.75723,161.613456 169.997819,164.361075 166.613414,164.361075 C163.25849,164.361075 160.499079,161.613456 160.499079,158.240844 C160.499079,154.850542 163.25849,152.114716 166.613414,152.114716 C169.997819,152.114716 172.75723,154.850542 172.75723,158.240844 Z M82.5103547,128.883782 C82.5103547,132.279979 79.780425,135.027597 76.3901236,135.027597 C72.9998222,135.027597 70.2463079,132.285875 70.2463079,128.883782 C70.2463079,125.511169 73.0057184,122.763551 76.3901236,122.763551 C79.7745288,122.763551 82.5103547,125.511169 82.5103547,128.883782 Z M76.3783313,164.372867 C79.7649543,164.372867 82.5103547,161.627467 82.5103547,158.240844 C82.5103547,154.854221 79.7649543,152.10882 76.3783313,152.10882 C72.9917083,152.10882 70.2463079,154.854221 70.2463079,158.240844 C70.2463079,161.627467 72.9917083,164.372867 76.3783313,164.372867 Z" fill="#FFFFFF"></path>
		<path d="M224.767401,239.177656 C224.767401,239.177656 184.673402,260.409787 127.675065,260.409787 C74.0493416,260.409787 30.7006532,239.177656 30.7006532,239.177656 C30.7006532,239.177656 73.3418004,214.720317 127.675065,214.720317 C184.266566,214.714421 224.767401,239.177656 224.767401,239.177656 L224.767401,239.177656 Z" fill="#647882"></path>
	</g>
</svg>
